Obsidian/status/16s/network-offline.svg

<svg height="16" width="16" xmlns="http://www.w3.org/2000/svg"><g fill="#a4a4a4"><path d="m2 2s-1 0-1 1v9c0 1 1 1 1 1h2l1 1h5v-2h-4l-1-1h-2v-7h10v6h2v-7c0-1-1-1-1-1z" opacity=".3"/><path d="m11 11v1c0 .28.1.54.281.72l.782.78-.782.78c-.181.18-.281.44-.281.72v1h1c.276 0 .538-.1.719-.28l.781-.78.781.78c.181.18.443.28.719.28h1v-1c0-.28-.1-.54-.281-.72l-.781-.78.781-.78c.181-.18.281-.44.281-.72v-1h-1c-.276 0-.538.1-.719.28l-.781.78-.781-.78c-.181-.18-.443-.28-.719-.28z"/></g></svg>

<svg xmlns="http://www.w3.org/2000/svg" width="16" height="16" version="1.1">
 <defs>
  <style id="current-color-scheme" type="text/css">
   .ColorScheme-Text { color:#a4a4a4; } .ColorScheme-Highlight { color:#5294e2; }
  </style>
 </defs>
 <path style="opacity:0.3;fill:currentColor" class="ColorScheme-Text" d="M 2,2 C 2,2 1,2 1,3 V 12 C 1,13 2,13 2,13 H 4 L 5,14 H 10 V 12 H 6 L 5,11 H 3 V 4 H 13 V 10 H 15 V 3 C 15,2 14,2 14,2 Z"/>
 <path style="fill:currentColor" class="ColorScheme-Text" d="M 11,11 V 12 C 11,12.28 11.1,12.54 11.281,12.72 L 12.063,13.5 11.281,14.28 C 11.1,14.46 11,14.72 11,15 V 16 H 12 C 12.276,16 12.538,15.9 12.719,15.72 L 13.5,14.94 14.281,15.72 C 14.462,15.9 14.724,16 15,16 H 16 V 15 C 16,14.72 15.9,14.46 15.719,14.28 L 14.938,13.5 15.719,12.72 C 15.9,12.54 16,12.28 16,12 V 11 H 15 C 14.724,11 14.462,11.1 14.281,11.28 L 13.5,12.06 12.719,11.28 C 12.538,11.1 12.276,11 12,11 Z"/>
</svg>
